src/4-icons/click.svg

<svg width="260" height="260" viewBox="0 0 260 260" fill="none" xmlns="http://www.w3.org/2000/svg">
<g opacity="0.9">
<path d="M128.388 69.3934L126.283 76.9852C125.893 78.3634 126.724 79.7934 128.103 80.1834C129.481 80.5734 130.911 79.7416 131.301 78.3634L133.406 70.7716C133.796 69.3934 132.964 67.9634 131.586 67.5734C130.208 67.2088 128.778 68.0152 128.388 69.3934Z" fill="black"/>
<path d="M108.576 140.608L106.782 147.057C106.392 148.435 107.224 149.865 108.602 150.255C109.981 150.645 111.411 149.813 111.801 148.435L113.594 141.986C113.984 140.608 113.152 139.178 111.774 138.788C110.396 138.425 108.966 139.23 108.576 140.608Z" fill="black"/>
<path d="M160.836 120.25C160.446 121.628 159.016 122.46 157.638 122.07L150.046 119.964C148.668 119.574 147.836 118.144 148.226 116.766C148.616 115.388 150.046 114.556 151.424 114.946L159.016 117.051C160.394 117.441 161.226 118.871 160.836 120.25Z" fill="black"/>
<path d="M89.6218 100.438C90.0118 99.06 89.18 97.63 87.8018 97.24L81.3536 95.4464C79.9754 95.0564 78.5454 95.8882 78.1554 97.2664C77.7654 98.6446 78.5972 100.075 79.9754 100.465L86.4236 102.258C87.8018 102.648 89.2572 101.816 89.6218 100.438Z" fill="black"/>
<path d="M104.988 79.1697C105.69 80.4169 105.248 82.0033 104 82.7051C102.753 83.4069 101.166 82.9651 100.464 81.7169L97.1626 75.8933C96.4608 74.6461 96.9036 73.0597 98.1508 72.3579C99.398 71.6561 100.984 72.0979 101.686 73.3461L104.988 79.1697Z" fill="black"/>
<path d="M149.291 94.1464L156.155 90.2728C157.403 89.5711 157.845 87.9846 157.143 86.7374C156.441 85.4903 154.855 85.0475 153.607 85.7492L146.743 89.6228C145.495 90.3246 145.053 91.911 145.755 93.1582C146.431 94.4064 148.043 94.8482 149.291 94.1464Z" fill="black"/>
<path d="M91.7788 126.62L85.9552 129.895C84.7081 130.598 83.1216 130.18 82.4198 128.933C81.718 127.686 82.1598 126.1 83.408 125.398L89.2316 122.096C90.4788 121.394 92.0652 121.837 92.767 123.084C93.4688 124.331 93.027 125.918 91.7788 126.62Z" fill="black"/>
<path fill-rule="evenodd" clip-rule="evenodd" d="M128.596 107.978C126.906 106.808 125.035 106.21 123.163 106.21C120.667 106.21 118.301 107.302 116.689 109.174C114.974 111.175 114.271 113.854 114.714 116.714L125.374 184.184C126.128 188.889 130.002 192.295 134.604 192.295C136.424 192.295 138.244 191.75 139.829 190.761L151.451 183.454L158.757 195.076C160.681 198.118 163.957 199.938 167.572 199.938C169.522 199.938 171.447 199.393 173.11 198.353L176.88 195.987C181.742 192.945 183.198 186.497 180.157 181.635L172.85 170.014L184.472 162.707C187.28 160.939 188.97 158.027 189.048 154.855C189.127 151.71 187.54 148.694 184.81 146.821L128.598 107.977L128.596 107.978ZM180.31 156.078L164.295 166.166C163.073 166.921 162.709 168.532 163.489 169.755L173.577 185.77C174.332 186.992 173.967 188.605 172.772 189.358L169.002 191.724C168.586 191.984 168.092 192.114 167.624 192.114C166.766 192.114 165.907 191.672 165.414 190.892L155.326 174.876C154.831 174.096 153.974 173.655 153.116 173.655C152.647 173.655 152.154 173.785 151.737 174.045L135.722 184.133C135.358 184.367 134.967 184.471 134.63 184.471C133.876 184.471 133.252 183.926 133.122 182.936L122.462 115.466C122.307 114.505 122.617 113.985 123.19 113.985C123.476 113.985 123.815 114.115 124.205 114.375L180.417 153.193C181.56 154.025 181.535 155.325 180.313 156.078H180.31Z" fill="black"/>
<path d="M111.878 132.393C101.972 129.195 94.7961 119.886 94.7961 108.915C94.8225 95.2899 105.872 84.2135 119.522 84.1881C133.172 84.1881 144.222 95.2381 144.222 108.888C144.222 110.006 144.144 111.098 143.988 112.19L136.292 106.886C135.851 103.012 134.108 99.5535 131.482 96.9281C128.414 93.8863 124.202 91.9881 119.522 91.9881C114.842 91.9881 110.631 93.8599 107.562 96.9281C104.521 99.9963 102.622 104.208 102.622 108.888C102.622 113.568 104.494 117.78 107.562 120.848C108.421 121.706 109.382 122.486 110.422 123.136L111.878 132.393Z" fill="black"/>
</g>
</svg>

<svg width="260" height="260" fill="none" xmlns="http://www.w3.org/2000/svg"><g opacity=".9" fill="#000"><path d="m128.388 69.393-2.105 7.592c-.39 1.378.441 2.808 1.82 3.198 1.378.39 2.808-.441 3.198-1.82l2.105-7.591c.39-1.379-.442-2.809-1.82-3.199a2.628 2.628 0 0 0-3.198 1.82Zm-19.812 71.215-1.794 6.449c-.39 1.378.442 2.808 1.82 3.198 1.379.39 2.809-.442 3.199-1.82l1.793-6.449c.39-1.378-.442-2.808-1.82-3.198a2.63 2.63 0 0 0-3.198 1.82Zm52.26-20.358c-.39 1.378-1.82 2.21-3.198 1.82l-7.592-2.106c-1.378-.39-2.21-1.82-1.82-3.198.39-1.378 1.82-2.21 3.198-1.82l7.592 2.105c1.378.39 2.21 1.82 1.82 3.199Zm-71.214-19.812c.39-1.378-.442-2.808-1.82-3.198l-6.448-1.794c-1.379-.39-2.809.442-3.199 1.82-.39 1.379.442 2.809 1.82 3.199l6.449 1.793a2.597 2.597 0 0 0 3.198-1.82Zm15.366-21.268a2.598 2.598 0 0 1-.988 3.535 2.599 2.599 0 0 1-3.536-.988l-3.301-5.824a2.599 2.599 0 0 1 .988-3.535 2.598 2.598 0 0 1 3.535.988l3.302 5.824Zm44.303 14.976 6.864-3.873a2.598 2.598 0 0 0 .988-3.536 2.6 2.6 0 0 0-3.536-.988l-6.864 3.874a2.598 2.598 0 0 0-.988 3.535c.676 1.248 2.288 1.69 3.536.988ZM91.779 126.62l-5.824 3.275c-1.247.703-2.833.285-3.535-.962a2.598 2.598 0 0 1 .988-3.535l5.824-3.302a2.599 2.599 0 0 1 3.535.988 2.599 2.599 0 0 1-.988 3.536Z"/><path fill-rule="evenodd" clip-rule="evenodd" d="M128.596 107.978c-1.69-1.17-3.561-1.768-5.433-1.768a8.552 8.552 0 0 0-6.474 2.964c-1.715 2.001-2.418 4.68-1.975 7.54l10.66 67.47c.754 4.705 4.628 8.111 9.23 8.111 1.82 0 3.64-.545 5.225-1.534l11.622-7.307 7.306 11.622c1.924 3.042 5.2 4.862 8.815 4.862 1.95 0 3.875-.545 5.538-1.585l3.77-2.366c4.862-3.042 6.318-9.49 3.277-14.352l-7.307-11.621 11.622-7.307c2.808-1.768 4.498-4.68 4.576-7.852.079-3.145-1.508-6.161-4.238-8.034l-56.212-38.844-.002.001Zm51.714 48.1-16.015 10.088a2.58 2.58 0 0 0-.806 3.589l10.088 16.015c.755 1.222.39 2.835-.805 3.588l-3.77 2.366c-.416.26-.91.39-1.378.39a2.635 2.635 0 0 1-2.21-1.222l-10.088-16.016a2.636 2.636 0 0 0-2.21-1.221c-.469 0-.962.13-1.379.39l-16.015 10.088a2.054 2.054 0 0 1-1.092.338c-.754 0-1.378-.545-1.508-1.535l-10.66-67.47c-.155-.961.155-1.481.728-1.481.286 0 .625.13 1.015.39l56.212 38.818c1.143.832 1.118 2.132-.104 2.885h-.003Z"/><path d="M111.878 132.393c-9.906-3.198-17.082-12.507-17.082-23.478.026-13.625 11.076-24.702 24.726-24.727 13.65 0 24.7 11.05 24.7 24.7 0 1.118-.078 2.21-.234 3.302l-7.696-5.304a16.706 16.706 0 0 0-4.81-9.958c-3.068-3.042-7.28-4.94-11.96-4.94-4.68 0-8.891 1.872-11.96 4.94-3.041 3.068-4.94 7.28-4.94 11.96 0 4.68 1.872 8.892 4.94 11.96.859.858 1.82 1.638 2.86 2.288l1.456 9.257Z"/></g></svg>
